X: 11353
T: Earl Of Hyndford, The
R: reel
M: 4/4
K: Fdorian
C2EG cded|BGFE DB,B,D|C2EG cded|BGFDC3B,|
C2EG cded|BGFE DB,B,D|ECFD GEAF|GEFD ECCG|
cGEe cGce|Bbfg dfBd|ecge dBGc|BGDG ECCG|
cGEe cGce|BdFB DFBD|ECFD GEAF|GEFD ECCG||

